Obsidian-SemiLight/actions/16s/kt-set-max-upload-speed.svg

<svg viewBox="0 0 16 16" xmlns="http://www.w3.org/2000/svg"><path d="m2 2v2h1v-1h10v1h1v-2zm6 2-5 5.1679688.8046875.8320312 4.1953125-4.3378906 4.195312 4.3378906.804688-.8320312zm-2 6v4h1 3v-4h-1v3h-2v-3z" fill="#4d4d4d"/></svg>

<svg xmlns="http://www.w3.org/2000/svg" viewBox="0 0 16 16">
  <defs id="defs3051">
    <style type="text/css" id="current-color-scheme">
      .ColorScheme-Text {
        color:#4d4d4d;
      }
      </style>
  </defs>
 <path style="fill:currentColor;fill-opacity:1;stroke:none" 
     d="M 2 2 L 2 4 L 3 4 L 3 3 L 13 3 L 13 4 L 14 4 L 14 2 L 2 2 z M 8 4 L 3 9.1679688 L 3.8046875 10 L 8 5.6621094 L 12.195312 10 L 13 9.1679688 L 8 4 z M 6 10 L 6 14 L 7 14 L 10 14 L 10 10 L 9 10 L 9 13 L 7 13 L 7 10 L 6 10 z "
     class="ColorScheme-Text"
     />
</svg>
